assets/icons/key-filled.svg

<?xml version="1.0" encoding="UTF-8" standalone="no"?>
<svg viewBox="0 0 24 24" height="24" width="24" version="1.1" id="svg4" sodipodi:docname="key-filled.svg" inkscape:version="1.1 (ce6663b3b7, 2021-05-25)"
   xmlns:inkscape="http://www.inkscape.org/namespaces/inkscape"
   xmlns:sodipodi="http://sodipodi.sourceforge.net/DTD/sodipodi-0.dtd"
   xmlns="http://www.w3.org/2000/svg"
   xmlns:svg="http://www.w3.org/2000/svg">
   <defs id="defs8" />
   <sodipodi:namedview id="namedview6" pagecolor="#ffffff" bordercolor="#666666" borderopacity="1.0" inkscape:pageshadow="2" inkscape:pageopacity="0.0" inkscape:pagecheckerboard="0" showgrid="false" inkscape:snap-page="true" inkscape:zoom="28" inkscape:cx="12.517857" inkscape:cy="14.125" inkscape:window-width="1920" inkscape:window-height="1016" inkscape:window-x="0" inkscape:window-y="27" inkscape:window-maximized="1" inkscape:current-layer="svg4" />
   <path id="path858" style="color:#000000;fill:#808080;fill-opacity:1;-inkscape-stroke:none" d="M 4.7871094 6 C 4.1101636 6.0055868 3.5365073 6.0481506 3.0273438 6.3027344 C 2.6879014 6.4724554 2.3973384 6.765168 2.2304688 7.140625 C 2.0635989 7.516082 2 7.958334 2 8.5 L 2 15.5 C 2 16.041666 2.0635989 16.483918 2.2304688 16.859375 C 2.3973384 17.234832 2.6879014 17.527544 3.0273438 17.697266 C 3.7062284 18.036708 4.500001 18 5.5 18 L 8.5 18 C 9.499999 18 10.293771 18.03671 10.972656 17.697266 C 11.312099 17.527544 11.602661 17.234832 11.769531 16.859375 C 11.936401 16.483918 12 16.041666 12 15.5 L 12 14 L 14.207031 14 L 15 13.207031 L 16 14.207031 L 17 13.207031 L 17.646484 13.853516 L 19.041016 15.248047 L 21.669922 11.962891 L 21.353516 11.646484 L 19.707031 10 L 12 10 L 12 8.5 C 12 7.958334 11.9364 7.516082 11.769531 7.140625 C 11.602661 6.765168 11.312099 6.4724554 10.972656 6.3027344 C 10.293771 5.9632914 9.499999 6 8.5 6 L 5.5 6 C 5.2500003 6 5.012758 5.9981377 4.7871094 6 z M 6 11 A 1 1 0 0 1 7 12 A 1 1 0 0 1 6 13 A 1 1 0 0 1 5 12 A 1 1 0 0 1 6 11 z " />
</svg>

<svg height="24" width="24" xmlns="http://www.w3.org/2000/svg"><path style="color:#000;fill:gray;fill-opacity:1;-inkscape-stroke:none" d="M4.787 6c-.677.006-1.25.048-1.76.303-.34.17-.63.462-.797.838C2.064 7.516 2 7.958 2 8.5v7c0 .542.064.984.23 1.36.167.375.458.668.797.837.68.34 1.473.303 2.473.303h3c1 0 1.794.037 2.473-.303.34-.17.63-.462.797-.838.166-.375.23-.817.23-1.359V14h2.207l.793-.793 1 1 1-1 .646.647 1.395 1.394 2.629-3.285-.316-.317L19.707 10H12V8.5c0-.542-.064-.984-.23-1.36a1.72 1.72 0 0 0-.797-.837C10.293 5.963 9.5 6 8.5 6h-3c-.25 0-.487-.002-.713 0zM6 11a1 1 0 0 1 1 1 1 1 0 0 1-1 1 1 1 0 0 1-1-1 1 1 0 0 1 1-1z"/></svg>
